static/img/pages/getQuestdb/maven.svg

<svg
  fill="none"
  height="49"
  viewBox="0 0 41 55"
  xmlns="http://www.w3.org/2000/svg"
>
  <path
    d="M13.6129 42.1058C13.6129 42.1058 11.5662 43.2961 15.0694 43.6988C19.3135 44.183 21.4826 44.1135 26.1596 43.2283C26.1596 43.2283 27.3892 43.9994 29.1065 44.6671C18.6219 49.1607 5.37781 44.4069 13.6129 42.1058Z"
    fill="#F35183"
  />
  <path
    d="M12.3318 36.2422C12.3318 36.2422 10.0362 37.9414 13.542 38.304C18.0757 38.7717 21.656 38.81 27.8513 37.617C27.8513 37.617 28.7082 38.4858 30.0557 38.9608C17.3792 42.6676 3.25986 39.2532 12.3318 36.2422Z"
    fill="#F35183"
  />
  <path
    d="M23.1322 26.2954C25.7156 29.2697 22.4535 31.9462 22.4535 31.9462C22.4535 31.9462 29.0131 28.5599 26.0006 24.3194C23.1869 20.3649 21.0292 18.4001 32.7101 11.6256C32.7101 11.6256 14.375 16.2049 23.1322 26.2954Z"
    fill="#F35183"
  />
  <path
    d="M36.9989 46.443C36.9989 46.443 38.5135 47.6909 35.3309 48.6564C29.2791 50.4897 10.1425 51.0433 4.82647 48.7294C2.91548 47.8981 6.49912 46.7444 7.6264 46.5023C8.80203 46.2474 9.47386 46.2949 9.47386 46.2949C7.34866 44.7978 -4.26262 49.2345 3.57591 50.5052C24.9527 53.9719 42.5438 48.9441 36.9989 46.443Z"
    fill="#F35183"
  />
  <path
    d="M14.5969 30.1667C14.5969 30.1667 4.86284 32.4787 11.1498 33.3183C13.8044 33.6737 19.0962 33.5933 24.0254 33.1803C28.0538 32.8404 32.0988 32.1179 32.0988 32.1179C32.0988 32.1179 30.6783 32.7263 29.6506 33.428C19.7659 36.0277 0.670312 34.8183 6.16768 32.1591C10.8168 29.9117 14.5969 30.1667 14.5969 30.1667Z"
    fill="#F35183"
  />
  <path
    d="M32.0586 39.9271C42.107 34.7056 37.461 29.6878 34.2182 30.3638C33.4234 30.5292 33.069 30.6726 33.069 30.6726C33.069 30.6726 33.3641 30.2103 33.9276 30.0103C40.3429 27.7548 45.2767 36.6623 31.8567 40.1902C31.8567 40.1904 32.0122 40.0514 32.0586 39.9271Z"
    fill="#F35183"
  />
  <path
    d="M26.0005 0.686523C26.0005 0.686523 31.5655 6.25333 20.7225 14.8135C12.0275 21.6802 18.7397 25.5954 20.7188 30.0687C15.6434 25.4895 11.9188 21.4583 14.4176 17.7065C18.0852 12.1992 28.2459 9.52905 26.0005 0.686523Z"
    fill="#F35183"
  />
  <path
    d="M15.5844 54.0761C25.2295 54.6935 40.0407 53.7335 40.3915 49.1697C40.3915 49.1697 39.7172 50.8998 32.4203 52.2738C24.188 53.823 14.0346 53.6421 8.01245 52.6492C8.0126 52.6491 9.24525 53.6695 15.5844 54.0761Z"
    fill="#F35183"
  />
</svg>

<svg fill="none" height="49" viewBox="0 0 41 55" xmlns="http://www.w3.org/2000/svg"><path d="M13.613 42.106s-2.047 1.19 1.456 1.593c4.245.484 6.414.415 11.09-.47 0 0 1.23.77 2.948 1.438-10.485 4.494-23.73-.26-15.494-2.561zm-1.281-5.864s-2.296 1.7 1.21 2.062c4.534.468 8.114.506 14.31-.687 0 0 .856.869 2.204 1.344-12.677 3.707-26.796.292-17.724-2.719zm10.8-9.947c2.584 2.975-.679 5.651-.679 5.651s6.56-3.386 3.548-7.627c-2.814-3.954-4.972-5.919 6.71-12.693 0 0-18.336 4.579-9.579 14.67z" fill="#F35183"/><path d="M36.999 46.443s1.514 1.248-1.668 2.213c-6.052 1.834-25.189 2.387-30.505.073-1.91-.83 1.673-1.985 2.8-2.227 1.176-.255 1.848-.207 1.848-.207-2.125-1.497-13.737 2.94-5.898 4.21 21.377 3.467 38.968-1.56 33.423-4.062zM14.597 30.167s-9.734 2.312-3.447 3.151c2.654.356 7.946.275 12.875-.138 4.029-.34 8.074-1.062 8.074-1.062s-1.42.608-2.448 1.31c-9.885 2.6-28.98 1.39-23.483-1.269 4.649-2.247 8.429-1.992 8.429-1.992zm17.462 9.76c10.048-5.221 5.402-10.24 2.16-9.563-.796.165-1.15.309-1.15.309s.295-.463.859-.663c6.415-2.255 11.349 6.652-2.071 10.18 0 0 .155-.139.202-.263zM26 .687s5.566 5.566-5.277 14.127c-8.695 6.866-1.983 10.781-.004 15.255-5.076-4.58-8.8-8.61-6.301-12.363C18.085 12.2 28.246 9.53 26 .686z" fill="#F35183"/><path d="M15.584 54.076c9.646.617 24.457-.343 24.807-4.906 0 0-.674 1.73-7.97 3.104-8.233 1.549-18.386 1.368-24.409.375 0 0 1.233 1.02 7.572 1.427z" fill="#F35183"/></svg>
